ui/StatusQ/src/assets/img/icons/nft-profile.svg

<svg fill="none" height="16" viewBox="0 0 16 16" width="16" xmlns="http://www.w3.org/2000/svg" xmlns:xlink="http://www.w3.org/1999/xlink"><clipPath id="a"><path d="m0 0h16v16h-16z"/></clipPath><g clip-path="url(#a)"><path clip-rule="evenodd" d="m7.9987 8.66667c1.28866 0 2.3333-1.04467 2.3333-2.33334 0-1.28866-1.04464-2.33333-2.3333-2.33333-1.28867 0-2.33334 1.04467-2.33334 2.33333 0 1.28867 1.04467 2.33334 2.33334 2.33334zm0-1c.73638 0 1.33333-.59696 1.33333-1.33334s-.59695-1.33333-1.33333-1.33333-1.33334.59695-1.33334 1.33333.59696 1.33334 1.33334 1.33334z" fill="#4360df" fill-rule="evenodd"/><path d="m10.963 10.8487c.2437.1895.2504.5482.0128.7452-.203.1684-.4951.1394-.7075-.0169-.6354-.4675-1.4202-.7437-2.2695-.7437s-1.6341.2762-2.26946.7437c-.21245.1563-.50452.1853-.70755.0169-.23757-.197-.23085-.5557.01279-.7452.81852-.6364 1.84711-1.01537 2.96422-1.01537s2.1457.37897 2.9642 1.01537z" fill="#4360df"/><path d="m1.49116 6.62799 2.4-4c.48193-.80321 1.34995-1.29468 2.28665-1.29468h3.64698c.93671 0 1.80471.49147 2.28661 1.29468l2.4 4c.5067.84449.5067 1.89949 0 2.74398l-2.4 4.00003c-.4819.8032-1.3499 1.2946-2.2866 1.2946h-3.64699c-.9367 0-1.80472-.4914-2.28665-1.2946l-2.4-4.00003c-.50669-.84449-.506689-1.89949 0-2.74398z" stroke="#4360df"/></g></svg>

<svg width="16" height="16" viewBox="0 0 16 16" fill="none" xmlns="http://www.w3.org/2000/svg">
<g clip-path="url(#clip0_14709_232681)">
<path fill-rule="evenodd" clip-rule="evenodd" d="M7.9987 8.66667C9.28736 8.66667 10.332 7.622 10.332 6.33333C10.332 5.04467 9.28736 4 7.9987 4C6.71003 4 5.66536 5.04467 5.66536 6.33333C5.66536 7.622 6.71003 8.66667 7.9987 8.66667ZM7.9987 7.66667C8.73508 7.66667 9.33203 7.06971 9.33203 6.33333C9.33203 5.59695 8.73508 5 7.9987 5C7.26232 5 6.66536 5.59695 6.66536 6.33333C6.66536 7.06971 7.26232 7.66667 7.9987 7.66667Z" fill="#4360DF"/>
<path d="M10.963 10.8487C11.2067 11.0382 11.2134 11.3969 10.9758 11.5939C10.7728 11.7623 10.4807 11.7333 10.2683 11.577C9.6329 11.1095 8.8481 10.8333 7.9988 10.8333C7.1495 10.8333 6.3647 11.1095 5.72934 11.577C5.51689 11.7333 5.22482 11.7623 5.02179 11.5939C4.78422 11.3969 4.79094 11.0382 5.03458 10.8487C5.8531 10.2123 6.88169 9.83333 7.9988 9.83333C9.11591 9.83333 10.1445 10.2123 10.963 10.8487Z" fill="#4360DF"/>
<path d="M1.49116 6.62799L3.89116 2.62799C4.37309 1.82478 5.24111 1.33331 6.17781 1.33331H9.82479C10.7615 1.33331 11.6295 1.82478 12.1114 2.62799L14.5114 6.62799C15.0181 7.47248 15.0181 8.52748 14.5114 9.37197L12.1114 13.372C11.6295 14.1752 10.7615 14.6666 9.8248 14.6666H6.17781C5.24111 14.6666 4.37309 14.1752 3.89116 13.372L1.49116 9.37197C0.98447 8.52748 0.984471 7.47248 1.49116 6.62799Z" stroke="#4360DF"/>
</g>
<defs>
<clipPath id="clip0_14709_232681">
<rect width="16" height="16" fill="white"/>
</clipPath>
</defs>
</svg>
